packages/kaspersky-hexa-ui-icons/src/iconsSVGs/24/StatusBulbSolid.svg

<svg xmlns="http://www.w3.org/2000/svg" width="24" height="24" fill="none" viewBox="0 0 24 24"><path fill="#000" fill-rule="evenodd" d="M12 22c5.5228 0 10-4.4772 10-10S17.5228 2 12 2 2 6.4772 2 12s4.4772 10 10 10m2-8.5351c1.1956-.6916 2-1.9843 2-3.4649 0-2.2091-1.7909-4-4-4s-4 1.7909-4 4c0 1.4806.8044 2.7733 2 3.4649V14.5a.5.5 0 0 0 .5.5h3a.5.5 0 0 0 .5-.5zM10 16.5a.5.5 0 0 1 .5-.5h3a.5.5 0 0 1 .5.5v1a.5.5 0 0 1-.5.5h-3a.5.5 0 0 1-.5-.5z"/></svg>

<svg width="24" height="24" viewBox="0 0 24 24" fill="none" xmlns="http://www.w3.org/2000/svg">
<path fill-rule="evenodd" clip-rule="evenodd" d="M12 22C17.5228 22 22 17.5228 22 12C22 6.47715 17.5228 2 12 2C6.47715 2 2 6.47715 2 12C2 17.5228 6.47715 22 12 22ZM14 13.4649C15.1956 12.7733 16 11.4806 16 10C16 7.79086 14.2091 6 12 6C9.79086 6 8 7.79086 8 10C8 11.4806 8.8044 12.7733 10 13.4649V14.5C10 14.7761 10.2239 15 10.5 15H13.5C13.7761 15 14 14.7761 14 14.5V13.4649ZM10 16.5C10 16.2239 10.2239 16 10.5 16H13.5C13.7761 16 14 16.2239 14 16.5V17.5C14 17.7761 13.7761 18 13.5 18H10.5C10.2239 18 10 17.7761 10 17.5V16.5Z" fill="black"/>
</svg>
